public/avatar/hat/60.svg

<svg xmlns:xlink="http://www.w3.org/1999/xlink" height="92.9" width="100.7" xmlns="http://www.w3.org/2000/svg"><use height="17.4" transform="translate(22.95 42.8)" width="31.2" xlink:href="#a"/><defs><g id="a"><path d="M-.25-4.5q5.95 0 7.05 1.2 2.3 2.45 3.9 8l1.85 1.55q1.85 1.65 1.95 2.3.15.9-4.15 1.9Q5.55 11.6-.9 11.7q-6.35.15-10.65-.85-3.65-.85-4.1-1.95-.3-.8 1.85-2.4l2.2-1.45Q-9.55-2.3-7.65-3.5q1.55-1 7.4-1" fill="#ffbf4a" fill-rule="evenodd" transform="translate(16.15 4.95)"/><path d="M-7.55-2.8q3 1.5 2.5 5.25t-2.25 4.5l-5.25-1.25 4.75 3.25q.55.9-3.25 2l-4-2q3.75-4.75 4-5.75l1.4-3.45q1.3-2.7 2.1-2.55" fill="#e0a741" fill-rule="evenodd" transform="translate(16.15 4.95)"/><path d="M-.3-4.45q5.9 0 7.1 1.15 1.7 1.7 3.9 8 4.35 2.55 3.8 3.85Q13.45 11.4-.3 11.9q-6.7.2-11.25-.8-4.1-.95-4.1-2.2 0-.95 2.05-2.5l2-1.35q2-7.45 3.95-8.55Q-6-4.4-.3-4.45Zm-9.35 11-1.95-1.5" fill="none" stroke="#b88527" stroke-linecap="round" stroke-linejoin="round" transform="translate(16.15 4.95)"/><path d="M10.7 4.7q-.6 1.05-2.65 1.35" fill="none" stroke="#b88527" stroke-linecap="round" stroke-linejoin="round" transform="translate(16.15 4.95)"/><path d="M-5.8-2.05Q-4.05-.8.45-.8T6.2-3.05" fill="none" stroke="#ffdd9c" stroke-linecap="round" stroke-linejoin="round" transform="translate(16.15 4.95)"/></g></defs></svg>

<?xml version="1.0" encoding="UTF-8" standalone="no"?>
<svg xmlns:xlink="http://www.w3.org/1999/xlink" height="92.9px" width="100.7px" xmlns="http://www.w3.org/2000/svg">
  <g transform="matrix(1.0, 0.0, 0.0, 1.0, 38.65, 49.75)">
    <use height="17.4" transform="matrix(1.0, 0.0, 0.0, 1.0, -15.7, -6.95)" width="31.2" xlink:href="#shape0"/>
  </g>
  <defs>
    <g id="shape0" transform="matrix(1.0, 0.0, 0.0, 1.0, 16.15, 4.95)">
      <path d="M-0.25 -4.5 Q5.7 -4.5 6.8 -3.3 9.1 -0.85 10.7 4.7 L12.55 6.25 Q14.4 7.9 14.5 8.55 14.65 9.45 10.35 10.45 5.55 11.6 -0.9 11.7 -7.25 11.85 -11.55 10.85 -15.2 10.0 -15.65 8.9 -15.95 8.1 -13.8 6.5 L-11.6 5.05 Q-9.55 -2.3 -7.65 -3.5 -6.1 -4.5 -0.25 -4.5" fill="#ffbf4a" fill-rule="evenodd" stroke="none"/>
      <path d="M-7.55 -2.8 Q-4.55 -1.3 -5.05 2.45 -5.55 6.2 -7.3 6.95 L-12.55 5.7 -7.8 8.95 Q-7.25 9.85 -11.05 10.95 L-15.05 8.95 Q-11.3 4.2 -11.05 3.2 L-9.65 -0.25 Q-8.35 -2.95 -7.55 -2.8" fill="#e0a741" fill-rule="evenodd" stroke="none"/>
      <path d="M-0.3 -4.45 Q5.6 -4.45 6.8 -3.3 8.5 -1.6 10.7 4.7 15.05 7.25 14.5 8.55 13.45 11.4 -0.3 11.9 -7.0 12.1 -11.55 11.1 -15.65 10.15 -15.65 8.9 -15.65 7.95 -13.6 6.4 L-11.6 5.05 Q-9.6 -2.4 -7.65 -3.5 -6.0 -4.4 -0.3 -4.45 Z" fill="none" stroke="#b88527" stroke-linecap="round" stroke-linejoin="round" stroke-width="1.0"/>
      <path d="M-9.65 6.55 L-11.6 5.05" fill="none" stroke="#b88527" stroke-linecap="round" stroke-linejoin="round" stroke-width="1.0"/>
      <path d="M10.7 4.7 Q10.1 5.75 8.05 6.05" fill="none" stroke="#b88527" stroke-linecap="round" stroke-linejoin="round" stroke-width="1.0"/>
      <path d="M-5.8 -2.05 Q-4.05 -0.8 0.45 -0.8 4.95 -0.8 6.2 -3.05" fill="none" stroke="#ffdd9c" stroke-linecap="round" stroke-linejoin="round" stroke-width="1.0"/>
    </g>
  </defs>
</svg>
